static/images/zen.svg

<svg xmlns="http://www.w3.org/2000/svg" width="48" height="48"><circle fill-rule="evenodd" clip-rule="evenodd" fill="#66A3C6" cx="416" cy="587" r="24"/><circle fill-rule="evenodd" clip-rule="evenodd" fill="#FFF" cx="416" cy="588" r="12.35"/><path fill-rule="evenodd" clip-rule="evenodd" fill="#414243" d="M416 575c-7.18 0-13 5.82-13 13s5.82 13 13 13 13-5.82 13-13-5.82-13-13-13zm0 19.5a1.626 1.626 0 1 1 .001-3.251A1.626 1.626 0 0 1 416 594.5zm0-6.5a4.875 4.875 0 0 0 0 9.75 9.75 9.75 0 0 1-9.75-9.75 9.75 9.75 0 0 1 9.75-9.75 4.875 4.875 0 0 1 0 9.75zm0-6.5a1.625 1.625 0 1 0 0 3.25 1.625 1.625 0 0 0 0-3.25z"/><circle fill-rule="evenodd" clip-rule="evenodd" fill="#66A3C6" cx="416" cy="587" r="24"/><circle fill-rule="evenodd" clip-rule="evenodd" fill="#FFF" cx="416" cy="588" r="12.35"/><path fill-rule="evenodd" clip-rule="evenodd" fill="#414243" d="M416 581.5a1.625 1.625 0 1 0 0 3.25 1.625 1.625 0 0 0 0-3.25zm0-6.5c-7.18 0-13 5.82-13 13s5.82 13 13 13 13-5.82 13-13-5.82-13-13-13zm0 19.5a1.626 1.626 0 1 1 .001-3.251A1.626 1.626 0 0 1 416 594.5zm0-6.5a4.875 4.875 0 0 0 0 9.75 9.75 9.75 0 0 1-9.75-9.75 9.75 9.75 0 0 1 9.75-9.75 4.875 4.875 0 0 1 0 9.75z"/><circle fill-rule="evenodd" clip-rule="evenodd" fill="#66A3C6" cx="24" cy="24" r="24"/><circle fill-rule="evenodd" clip-rule="evenodd" fill="#FFF" cx="24" cy="25" r="12.35"/><path fill-rule="evenodd" clip-rule="evenodd" fill="#414243" d="M24 12c-7.18 0-13 5.82-13 13s5.82 13 13 13 13-5.82 13-13-5.82-13-13-13zm0 19.5a1.626 1.626 0 1 1 .001-3.251A1.626 1.626 0 0 1 24 31.5zm0-6.5a4.875 4.875 0 0 0 0 9.75A9.75 9.75 0 0 1 14.25 25 9.75 9.75 0 0 1 24 15.25 4.875 4.875 0 0 1 24 25zm0-6.5a1.625 1.625 0 1 0 0 3.25 1.625 1.625 0 0 0 0-3.25z"/></svg>

<?xml version="1.0" encoding="utf-8"?>
<!-- Generator: Adobe Illustrator 17.0.0, SVG Export Plug-In . SVG Version: 6.00 Build 0)  -->
<!DOCTYPE svg PUBLIC "-//W3C//DTD SVG 1.1//EN" "http://www.w3.org/Graphics/SVG/1.1/DTD/svg11.dtd">
<svg version="1.1" id="Layer_1" xmlns="http://www.w3.org/2000/svg" xmlns:xlink="http://www.w3.org/1999/xlink" x="0px" y="0px"
	 width="48px" height="48px" viewBox="0 0 48 48" enable-background="new 0 0 48 48" xml:space="preserve">
<g id="BG_-_circle_3_">
	<g>
		<circle fill-rule="evenodd" clip-rule="evenodd" fill="#66A3C6" cx="416" cy="587" r="24"/>
	</g>
</g>
<g id="Base_1_">
	<g>
		<circle fill-rule="evenodd" clip-rule="evenodd" fill="#FFFFFF" cx="416" cy="588" r="12.35"/>
	</g>
</g>
<g id="Yin_Yang">
	<g>
		<path fill-rule="evenodd" clip-rule="evenodd" fill="#414243" d="M416,575c-7.18,0-13,5.82-13,13s5.82,13,13,13s13-5.82,13-13
			S423.18,575,416,575z M416,594.5c-0.897,0-1.625-0.728-1.625-1.625c0-0.897,0.728-1.625,1.625-1.625s1.625,0.728,1.625,1.625
			C417.625,593.772,416.897,594.5,416,594.5z M416,588c-2.692,0-4.875,2.183-4.875,4.875s2.183,4.875,4.875,4.875
			c-5.385,0-9.75-4.365-9.75-9.75c0-5.385,4.365-9.75,9.75-9.75c2.692,0,4.875,2.183,4.875,4.875
			C420.875,585.817,418.692,588,416,588z M416,581.5c-0.897,0-1.625,0.727-1.625,1.625c0,0.897,0.728,1.625,1.625,1.625
			s1.625-0.728,1.625-1.625C417.625,582.227,416.897,581.5,416,581.5z"/>
	</g>
</g>
<g id="BG_-_circle_1_">
	<g>
		<circle fill-rule="evenodd" clip-rule="evenodd" fill="#66A3C6" cx="416" cy="587" r="24"/>
	</g>
</g>
<g id="Base_3_">
	<g>
		<circle fill-rule="evenodd" clip-rule="evenodd" fill="#FFFFFF" cx="416" cy="588" r="12.35"/>
	</g>
</g>
<g id="Yin_Yang_2_">
	<g>
		<path fill-rule="evenodd" clip-rule="evenodd" fill="#414243" d="M416,581.5c-0.897,0-1.625,0.727-1.625,1.625
			c0,0.897,0.728,1.625,1.625,1.625s1.625-0.728,1.625-1.625C417.625,582.227,416.897,581.5,416,581.5z M416,575
			c-7.18,0-13,5.82-13,13s5.82,13,13,13s13-5.82,13-13S423.18,575,416,575z M416,594.5c-0.897,0-1.625-0.728-1.625-1.625
			c0-0.897,0.728-1.625,1.625-1.625s1.625,0.728,1.625,1.625C417.625,593.772,416.897,594.5,416,594.5z M416,588
			c-2.692,0-4.875,2.183-4.875,4.875s2.183,4.875,4.875,4.875c-5.385,0-9.75-4.365-9.75-9.75c0-5.385,4.365-9.75,9.75-9.75
			c2.692,0,4.875,2.183,4.875,4.875C420.875,585.817,418.692,588,416,588z"/>
	</g>
</g>
<g id="BG_-_circle_5_">
	<g>
		<circle fill-rule="evenodd" clip-rule="evenodd" fill="#66A3C6" cx="24" cy="24" r="24"/>
	</g>
</g>
<g id="Base_5_">
	<g>
		<circle fill-rule="evenodd" clip-rule="evenodd" fill="#FFFFFF" cx="24" cy="25" r="12.35"/>
	</g>
</g>
<g id="Yin_Yang_4_">
	<g>
		<path fill-rule="evenodd" clip-rule="evenodd" fill="#414243" d="M24,12c-7.18,0-13,5.82-13,13s5.82,13,13,13s13-5.82,13-13
			S31.18,12,24,12z M24,31.5c-0.897,0-1.625-0.728-1.625-1.625c0-0.897,0.728-1.625,1.625-1.625s1.625,0.728,1.625,1.625
			C25.625,30.772,24.897,31.5,24,31.5z M24,25c-2.692,0-4.875,2.183-4.875,4.875S21.308,34.75,24,34.75
			c-5.385,0-9.75-4.365-9.75-9.75c0-5.385,4.365-9.75,9.75-9.75c2.692,0,4.875,2.183,4.875,4.875C28.875,22.817,26.692,25,24,25z
			 M24,18.5c-0.897,0-1.625,0.727-1.625,1.625c0,0.897,0.728,1.625,1.625,1.625s1.625-0.728,1.625-1.625
			C25.625,19.227,24.897,18.5,24,18.5z"/>
	</g>
</g>
</svg>
